libs/ui/packages/crypto-icons/src/svg/GTO.svg

<svg width="24" height="24" viewBox="0 0 24 24" fill="none">
<path d="M11.532 10.5H6.015V15.9165C6.009 16.4707 6.231 17.004 6.63 17.3955C7.029 17.787 7.57275 18.0052 8.1375 18H11.5328L11.532 10.5ZM11.6595 7.66575H12.2535C12.8415 6.65325 13.38 5.96475 13.8862 5.59275C14.5102 5.133 15.1493 5.12925 15.6503 5.62125C16.1183 6.08025 16.206 6.65625 15.8978 7.21125C15.8108 7.36575 15.6952 7.51725 15.5505 7.66575H17.7315C18.2408 7.66575 18.75 8.08425 18.75 8.6655C18.75 9.16575 18.3232 9.666 17.7315 9.666H12.381V8.3325H11.532V9.666H6.2685C5.76 9.666 5.25 9.2475 5.25 8.6655C5.25 8.166 5.67675 7.66575 6.2685 7.66575H8.4735C8.33553 7.53719 8.21273 7.39325 8.1075 7.23675C7.74225 6.67875 7.7865 6.08925 8.26275 5.62125C8.76375 5.12925 9.40275 5.13375 10.0275 5.59275C10.533 5.96475 11.0715 6.654 11.6602 7.66575H11.6595ZM10.6733 7.66575C10.2382 6.9735 9.84975 6.50325 9.51825 6.2595C9.2115 6.0345 9.0435 6.033 8.86275 6.21C8.6775 6.39225 8.66625 6.54825 8.8215 6.78525C8.9985 7.056 9.37125 7.36125 9.90825 7.66575H10.6733ZM13.2397 7.66575H14.1547C14.667 7.37175 15.0052 7.07475 15.1522 6.81075C15.2797 6.58275 15.2527 6.4095 15.0502 6.21075C14.8695 6.033 14.7015 6.03375 14.3955 6.2595C14.0633 6.50325 13.674 6.9735 13.2405 7.66575H13.2397ZM12.381 10.4992H17.8988V15.9165C17.9011 16.1917 17.8479 16.4646 17.7422 16.7188C17.6365 16.9729 17.4806 17.2031 17.2838 17.3955C16.8813 17.7889 16.339 18.0063 15.7762 18H12.381V10.4992Z" fill="#7F27FF"/>
<path d="M11.532 10.8749H6.015V16.2914C6.009 16.8457 6.231 17.3789 6.63 17.7704C7.029 18.1619 7.57275 18.3802 8.1375 18.3749H11.5328L11.532 10.8749ZM11.6595 8.04067H12.2535C12.8415 7.02817 13.38 6.33967 13.8862 5.96767C14.5102 5.50792 15.1493 5.50417 15.6503 5.99617C16.1183 6.45517 16.206 7.03117 15.8978 7.58617C15.8108 7.74067 15.6952 7.89217 15.5505 8.04067H17.7315C18.2408 8.04067 18.75 8.45917 18.75 9.04042C18.75 9.54067 18.3232 10.0409 17.7315 10.0409H12.381V8.70742H11.532V10.0409H6.2685C5.76 10.0409 5.25 9.62242 5.25 9.04042C5.25 8.54092 5.67675 8.04067 6.2685 8.04067H8.4735C8.33553 7.91211 8.21273 7.76817 8.1075 7.61167C7.74225 7.05367 7.7865 6.46417 8.26275 5.99617C8.76375 5.50417 9.40275 5.50867 10.0275 5.96767C10.533 6.33967 11.0715 7.02892 11.6602 8.04067H11.6595ZM10.6733 8.04067C10.2382 7.34842 9.84975 6.87817 9.51825 6.63442C9.2115 6.40942 9.0435 6.40792 8.86275 6.58492C8.6775 6.76717 8.66625 6.92317 8.8215 7.16017C8.9985 7.43092 9.37125 7.73617 9.90825 8.04067H10.6733ZM13.2397 8.04067H14.1547C14.667 7.74667 15.0052 7.44967 15.1522 7.18567C15.2797 6.95767 15.2527 6.78442 15.0502 6.58567C14.8695 6.40792 14.7015 6.40867 14.3955 6.63442C14.0633 6.87817 13.674 7.34842 13.2405 8.04067H13.2397ZM12.381 10.8742H17.8988V16.2914C17.9011 16.5667 17.8479 16.8395 17.7422 17.0937C17.6365 17.3478 17.4806 17.578 17.2838 17.7704C16.8813 18.1638 16.339 18.3813 15.7762 18.3749H12.381V10.8742Z" fill="#7F27FF"/>
</svg>

<svg width="24" height="24" viewBox="0 0 24 24" fill="none"><path fill="#7f27ff" d="M11.532 10.5H6.015v5.416a2.04 2.04 0 0 0 .615 1.48c.399.391.943.61 1.507.604h3.396zm.127-2.834h.595c.588-1.013 1.126-1.701 1.632-2.073.624-.46 1.263-.464 1.764.028.468.46.556 1.035.248 1.59a2.2 2.2 0 0 1-.348.455h2.182c.509 0 1.018.418 1.018 1 0 .5-.427 1-1.018 1H12.38V8.332h-.849v1.334H6.269c-.509 0-1.019-.418-1.019-1 0-.5.427-1 1.019-1h2.204a2.5 2.5 0 0 1-.366-.43c-.365-.557-.32-1.147.156-1.615.5-.492 1.14-.487 1.765-.028.505.372 1.043 1.061 1.632 2.073m-.986 0c-.435-.693-.823-1.163-1.155-1.407-.307-.224-.475-.226-.655-.049-.185.182-.197.338-.041.575.177.271.55.576 1.086.88zm2.567 0h.915c.512-.294.85-.591.997-.855.128-.228.1-.401-.102-.6-.18-.178-.349-.177-.655.048-.332.244-.721.714-1.154 1.407zm-.859 2.833H17.9v5.417a2.05 2.05 0 0 1-.615 1.48c-.403.393-.945.61-1.508.604h-3.395z"/><path fill="#7f27ff" d="M11.532 10.875H6.015v5.416a2.04 2.04 0 0 0 .615 1.48c.399.39.943.61 1.507.604h3.396zm.127-2.834h.595c.588-1.013 1.126-1.701 1.632-2.073.624-.46 1.263-.464 1.764.028.468.46.556 1.035.248 1.59a2.2 2.2 0 0 1-.348.455h2.182c.509 0 1.018.418 1.018 1 0 .5-.427 1-1.018 1H12.38V8.707h-.849v1.334H6.269c-.509 0-1.019-.419-1.019-1 0-.5.427-1 1.019-1h2.204a2.5 2.5 0 0 1-.366-.43c-.365-.557-.32-1.147.156-1.615.5-.492 1.14-.487 1.765-.028.505.372 1.043 1.06 1.632 2.073m-.986 0c-.435-.693-.823-1.163-1.155-1.407-.307-.225-.475-.226-.655-.05-.185.183-.197.34-.041.576.177.27.55.576 1.086.88zm2.567 0h.915c.512-.294.85-.591.997-.855.128-.228.1-.402-.102-.6-.18-.178-.349-.177-.655.048-.332.244-.721.714-1.154 1.407zm-.859 2.833H17.9v5.417a2.05 2.05 0 0 1-.615 1.48c-.403.393-.945.61-1.508.604h-3.395z"/></svg>
